;FLAVOR:Marlin
;TIME:1081
;Filament used: 2.13059m
;Layer height: 0.25
;Generated with Cura_SteamEngine 3.0.4
M190 S80
M104 S245
M109 S245
M82 ; absolute extrusion mode
G21 ;metric values
G90 ;absolute positioning
M82 ;set extruder to absolute mode
M107 ;start with the fan off
G28 X0 Y0 ;move X/Y to min endstops
G28 Z0 ;move Z to min endstops
G1 Z15.0 F9000 ;move the platform down 15mm
G92 E0 ;zero the extruded length
G1 F200 E3 ;extrude 3mm of feed stock
G92 E0 ;zero the extruded length again
G1 F9000
;Put printing message on LCD screen
M117 Printing...
;LAYER_COUNT:33
;LAYER:0
M107
G0 F2057.1 X80.224 Y80.579 Z0.35
;TYPE:SKIRT
G1 F1200 X81.871 Y79.027 E0.17288
G1 X82.161 Y78.78 E0.20198
G1 X84.104 Y77.29 E0.38904
G1 X84.422 Y77.071 E0.41854
G1 X86.555 Y75.76 E0.6098
G1 X86.902 Y75.571 E0.63999
G1 X89.158 Y74.493 E0.831
G1 X89.493 Y74.353 E0.85874
G1 X91.618 Y73.58 E1.03148
G1 X91.98 Y73.469 E1.06041
G1 X94.393 Y72.858 E1.25056
G1 X94.775 Y72.782 E1.28032
G1 X97.239 Y72.425 E1.47052
G1 X97.626 Y72.389 E1.50021
G1 X100.105 Y72.289 E1.68975
G1 X100.495 Y72.294 E1.71954
G1 X102.969 Y72.452 E1.90893
G1 X103.352 Y72.496 E1.93838
G1 X105.812 Y72.91 E2.12895
G1 X106.218 Y73.002 E2.16076
G1 X108.842 Y73.75 E2.3692
G1 X109.199 Y73.871 E2.398
G1 X111.274 Y74.696 E2.56859
G1 X111.616 Y74.852 E2.5973
G1 X113.831 Y76.001 E2.78793
G1 X114.206 Y76.224 E2.82126
G1 X116.653 Y77.88 E3.04698
G1 X116.946 Y78.101 E3.07502
G1 X118.53 Y79.416 E3.23229
G1 X118.802 Y79.665 E3.26046
G1 X120.54 Y81.423 E3.44931
G1 X120.8 Y81.714 E3.47913
G1 X122.359 Y83.66 E3.66961
G1 X122.585 Y83.975 E3.69923
G1 X123.928 Y86.061 E3.88876
G1 X124.113 Y86.382 E3.91706
G1 X124.906 Y87.931 E4.05
G1 X125.051 Y88.251 E4.07684
G1 X126.334 Y91.469 E4.3415
G1 X126.485 Y91.932 E4.3787
G1 X127.107 Y94.372 E4.57107
G1 X127.18 Y94.729 E4.5989
G1 X127.52 Y96.943 E4.77002
G1 X127.558 Y97.315 E4.79859
G1 X127.688 Y99.787 E4.9877
G1 X127.685 Y100.225 E5.02116
G1 X127.495 Y103.175 E5.24699
G1 X127.445 Y103.591 E5.279
G1 X127.001 Y106.085 E5.47252
G1 X126.922 Y106.432 E5.49971
G1 X126.331 Y108.559 E5.66835
G1 X126.218 Y108.901 E5.69587
G1 X125.4 Y111.029 E5.87004
G1 X125.247 Y111.373 E5.8988
G1 X124.132 Y113.581 E6.08776
G1 X123.951 Y113.901 E6.11585
G1 X123.004 Y115.393 E6.25085
G1 X122.797 Y115.687 E6.27832
G1 X120.669 Y118.42 E6.54293
G1 X120.367 Y118.762 E6.57779
G1 X118.775 Y120.361 E6.75016
G1 X118.498 Y120.613 E6.77877
G1 X116.582 Y122.187 E6.9682
G1 X116.223 Y122.448 E7.00211
G1 X113.713 Y124.054 E7.22975
G1 X113.349 Y124.259 E7.26166
G1 X111.09 Y125.372 E7.45405
G1 X110.749 Y125.52 E7.48244
G1 X108.542 Y126.347 E7.66249
G1 X108.195 Y126.458 E7.69033
G1 X105.945 Y127.06 E7.86826
G1 X105.584 Y127.137 E7.89646
G1 X103.357 Y127.503 E8.06887
G1 X102.941 Y127.548 E8.10084
G1 X99.981 Y127.7 E8.32726
G1 X99.569 Y127.699 E8.35874
G1 X97.12 Y127.555 E8.54615
G1 X96.733 Y127.512 E8.5759
G1 X94.269 Y127.108 E8.76665
G1 X93.953 Y127.042 E8.79131
G1 X92.637 Y126.708 E8.89503
G1 X92.544 Y126.683 E8.90239
G1 X91.695 Y126.444 E8.96977
G1 X91.408 Y126.35 E8.99284
G1 X89.247 Y125.549 E9.1689
G1 X88.897 Y125.399 E9.19799
G1 X86.663 Y124.302 E9.38812
G1 X86.284 Y124.088 E9.42137
G1 X83.814 Y122.496 E9.64587
G1 X83.472 Y122.247 E9.67818
G1 X81.484 Y120.621 E9.87438
G1 X81.194 Y120.357 E9.90434
G1 X79.439 Y118.585 E10.09487
G1 X79.204 Y118.324 E10.1217
G1 X77.826 Y116.644 E10.2877
G1 X77.612 Y116.357 E10.31504
G1 X76.337 Y114.459 E10.48972
G1 X76.142 Y114.135 E10.51861
G1 X74.988 Y111.975 E10.70569
G1 X74.834 Y111.65 E10.73317
G1 X74.149 Y110.005 E10.8693
G1 X74.043 Y109.716 E10.89281
G1 X73.267 Y107.315 E11.08558
G1 X73.167 Y106.942 E11.11508
G1 X72.613 Y104.337 E11.31854
G1 X72.531 Y103.576 E11.37701
G1 X72.496 Y96.753 E11.89826
G1 X72.555 Y96.072 E11.95048
G1 X72.929 Y93.987 E12.1123
G1 X73.015 Y93.615 E12.14147
G1 X73.745 Y91.069 E12.34381
G1 X73.879 Y90.685 E12.37488
G1 X74.815 Y88.394 E12.56394
G1 X75.003 Y87.999 E12.59736
G1 X76.438 Y85.401 E12.82409
G1 X76.655 Y85.055 E12.85529
G1 X78.065 Y83.053 E13.04236
G1 X78.308 Y82.743 E13.07245
G1 X79.973 Y80.839 E13.26568
G1 X80.224 Y80.579 E13.29329
G0 F2057.1 X80.567 Y80.943
G1 F1200 X82.214 Y79.391 E13.46617
G1 X82.465 Y79.177 E13.49137
G1 X84.408 Y77.687 E13.67842
G1 X84.684 Y77.497 E13.70402
G1 X86.817 Y76.186 E13.89529
G1 X87.118 Y76.023 E13.92144
G1 X89.374 Y74.945 E14.11245
G1 X89.664 Y74.823 E14.13648
G1 X91.789 Y74.05 E14.30923
G1 X92.102 Y73.953 E14.33426
G1 X94.515 Y73.342 E14.52442
G1 X94.847 Y73.277 E14.55026
G1 X97.311 Y72.92 E14.74046
G1 X97.646 Y72.889 E14.76616
G1 X100.125 Y72.789 E14.9557
G1 X100.463 Y72.793 E14.98152
G1 X102.937 Y72.951 E15.17091
G1 X103.269 Y72.989 E15.19644
G1 X105.729 Y73.403 E15.38701
G1 X106.081 Y73.483 E15.41459
G1 X108.705 Y74.231 E15.62303
G1 X109.015 Y74.336 E15.64803
G1 X111.09 Y75.161 E15.81862
G1 X111.386 Y75.296 E15.84348
G1 X113.601 Y76.445 E16.0341
G1 X113.926 Y76.638 E16.06298
G1 X116.373 Y78.294 E16.2887
G1 X116.627 Y78.485 E16.31298
G1 X118.211 Y79.8 E16.47025
G1 X118.446 Y80.016 E16.49463
G1 X120.184 Y81.774 E16.68349
G1 X120.409 Y82.027 E16.70935
G1 X121.968 Y83.973 E16.89984
G1 X122.165 Y84.246 E16.92556
G1 X123.508 Y86.332 E17.11509
G1 X123.668 Y86.61 E17.13959
G1 X124.461 Y88.159 E17.27253
G1 X124.587 Y88.436 E17.29578
G1 X125.87 Y91.654 E17.56044
G1 X126 Y92.055 E17.59264
G1 X126.622 Y94.495 E17.785
G1 X126.685 Y94.805 E17.80917
G1 X127.025 Y97.019 E17.98029
G1 X127.059 Y97.341 E18.00503
G1 X127.189 Y99.813 E18.19413
G1 X127.186 Y100.193 E18.22316
G1 X126.996 Y103.143 E18.44899
G1 X126.953 Y103.504 E18.47677
G1 X126.509 Y105.998 E18.67029
G1 X126.44 Y106.298 E18.69381
G1 X125.849 Y108.425 E18.86245
G1 X125.752 Y108.721 E18.88625
G1 X124.934 Y110.849 E19.06041
G1 X124.801 Y111.148 E19.08541
G1 X123.686 Y113.356 E19.27438
G1 X123.529 Y113.633 E19.2987
G1 X122.582 Y115.125 E19.43371
G1 X122.402 Y115.38 E19.45755
G1 X120.274 Y118.113 E19.72216
G1 X120.013 Y118.409 E19.75231
G1 X118.421 Y120.008 E19.92469
G1 X118.181 Y120.226 E19.94945
G1 X116.265 Y121.8 E20.13888
G1 X115.954 Y122.027 E20.1683
G1 X113.444 Y123.633 E20.39594
G1 X113.128 Y123.81 E20.42361
G1 X110.869 Y124.923 E20.61599
G1 X110.573 Y125.051 E20.64063
G1 X108.366 Y125.878 E20.82068
G1 X108.066 Y125.975 E20.84477
G1 X105.816 Y126.577 E21.0227
G1 X105.503 Y126.644 E21.04715
G1 X103.276 Y127.01 E21.21957
G1 X102.916 Y127.049 E21.24723
G1 X99.956 Y127.201 E21.47365
G1 X99.598 Y127.199 E21.501
G1 X97.149 Y127.055 E21.68842
G1 X96.814 Y127.018 E21.71417
G1 X94.35 Y126.614 E21.90491
G1 X94.076 Y126.557 E21.92629
G1 X92.76 Y126.223 E22.03002
G1 X92.679 Y126.201 E22.03643
G1 X91.83 Y125.962 E22.10381
G1 X91.581 Y125.881 E22.12381
G1 X89.42 Y125.08 E22.29988
G1 X89.117 Y124.95 E22.32506
G1 X86.883 Y123.853 E22.5152
G1 X86.555 Y123.668 E22.54396
G1 X84.085 Y122.076 E22.76846
G1 X83.788 Y121.86 E22.79651
G1 X81.8 Y120.234 E22.99271
G1 X81.549 Y120.005 E23.01867
G1 X79.794 Y118.233 E23.2092
G1 X79.59 Y118.007 E23.23245
G1 X78.212 Y116.327 E23.39845
G1 X78.027 Y116.078 E23.42215
G1 X76.752 Y114.18 E23.59682
G1 X76.583 Y113.899 E23.62187
G1 X75.429 Y111.739 E23.80896
G1 X75.296 Y111.457 E23.83278
G1 X74.611 Y109.812 E23.9689
G1 X74.519 Y109.562 E23.98925
G1 X73.743 Y107.161 E24.18202
G1 X73.656 Y106.838 E24.20757
G1 X73.102 Y104.233 E24.41103
G1 X73.031 Y103.574 E24.46167
G1 X72.996 Y96.751 E24.98291
G1 X73.047 Y96.16 E25.02823
G1 X73.421 Y94.075 E25.19005
G1 X73.496 Y93.753 E25.21531
G1 X74.226 Y91.207 E25.41765
G1 X74.341 Y90.874 E25.44456
G1 X75.277 Y88.583 E25.63363
G1 X75.441 Y88.241 E25.6626
G1 X76.876 Y85.643 E25.88934
G1 X77.064 Y85.343 E25.91638
G1 X78.474 Y83.341 E26.10345
G1 X78.684 Y83.073 E26.12946
G1 X80.349 Y81.169 E26.32269
G1 X80.567 Y80.943 E26.34667
G1 F1500 E19.84667
G0 F2057.1 X82.363 Y82.805
G0 X83.359 Y83.835
G0 X83.069 Y84.227
G0 X82.996 Y84.159
;TYPE:WALL-INNER
G1 F1500 E26.34667
G1 F1200 X84.734 Y82.479 E26.53134
G1 X86.627 Y80.997 E26.715
G1 X88.687 Y79.705 E26.90076
G1 X90.837 Y78.651 E27.08369
G1 X93.109 Y77.815 E27.26863
G1 X95.447 Y77.222 E27.4529
G1 X97.826 Y76.876 E27.63655
G1 X100.256 Y76.777 E27.82234
G1 X102.644 Y76.93 E28.00515
G1 X105.033 Y77.333 E28.19023
G1 X107.359 Y77.981 E28.37469
G1 X109.6 Y78.864 E28.5587
G1 X111.748 Y79.981 E28.74366
G1 X113.755 Y81.304 E28.9273
G1 X115.624 Y82.837 E29.11196
G1 X117.323 Y84.557 E29.29666
G1 X118.83 Y86.438 E29.48079
G1 X120.135 Y88.464 E29.66489
G1 X121.22 Y90.614 E29.84887
G1 X122.083 Y92.875 E30.03375
G1 X122.7 Y95.204 E30.21781
G1 X123.077 Y97.591 E30.40242
G1 X123.202 Y100 E30.58671
G1 X123.077 Y102.409 E30.77099
G1 X122.7 Y104.796 E30.9556
G1 X122.083 Y107.125 E31.13966
G1 X121.22 Y109.386 E31.32454
G1 X120.135 Y111.536 E31.50852
G1 X118.83 Y113.562 E31.69262
G1 X117.323 Y115.443 E31.87675
G1 X115.624 Y117.163 E32.06145
G1 X113.755 Y118.696 E32.24611
G1 X111.748 Y120.019 E32.42975
G1 X109.6 Y121.136 E32.61471
G1 X107.359 Y122.019 E32.79872
G1 X105.033 Y122.667 E32.98318
G1 X102.644 Y123.07 E33.16826
G1 X100.256 Y123.223 E33.35107
G1 X97.826 Y123.124 E33.53686
G1 X95.447 Y122.778 E33.72051
G1 X93.109 Y122.185 E33.90478
G1 X90.837 Y121.349 E34.08972
G1 X88.687 Y120.295 E34.27265
G1 X86.627 Y119.003 E34.45841
G1 X84.734 Y117.521 E34.64207
G1 X82.996 Y115.841 E34.82674
G1 X81.44 Y113.991 E35.01141
G1 X80.093 Y111.998 E35.19518
G1 X78.956 Y109.872 E35.37936
G1 X78.042 Y107.628 E35.56446
G1 X77.371 Y105.317 E35.7483
G1 X77.181 Y104.321 E35.82576
G1 X77.125 Y104.025 E35.84877
G1 X77.426 Y104.025 E35.86293
G1 X77.427 Y104.025 E35.863
G1 X87.607 Y104.024 E36.6407
G1 X88 Y105.118 E36.7295
G1 X88.881 Y106.825 E36.87625
G1 X90.008 Y108.386 E37.02333
G1 X91.355 Y109.765 E37.1706
G1 X92.889 Y110.929 E37.31771
G1 X94.578 Y111.855 E37.46486
G1 X96.386 Y112.522 E37.61208
G1 X98.272 Y112.915 E37.75925
G1 X100.154 Y113.021 E37.90325
G1 X100.396 Y113.007 E37.92177
G1 X102.113 Y112.851 E38.05348
G1 X103.979 Y112.396 E38.20021
G1 X105.774 Y111.666 E38.34825
G1 X107.427 Y110.687 E38.49501
G1 X108.941 Y109.45 E38.64437
G1 X110.22 Y108.05 E38.78923
G1 X111.296 Y106.451 E38.93647
G1 X112.122 Y104.712 E39.08354
G1 X112.686 Y102.867 E39.23093
G1 X112.969 Y100.962 E39.37806
G1 X112.969 Y99.038 E39.52504
G1 X112.686 Y97.133 E39.67217
G1 X112.122 Y95.288 E39.81956
G1 X111.296 Y93.549 E39.96663
G1 X110.22 Y91.95 E40.11387
G1 X108.921 Y90.528 E40.261
G1 X107.439 Y89.325 E40.40682
G1 X105.77 Y88.332 E40.55519
G1 X103.984 Y87.605 E40.7025
G1 X102.097 Y87.148 E40.85082
G1 X100.194 Y86.975 E40.9968
G1 X98.233 Y87.094 E41.14689
G1 X96.386 Y87.478 E41.291
G1 X94.578 Y88.145 E41.43822
G1 X92.889 Y89.071 E41.58537
G1 X91.355 Y90.235 E41.73248
G1 X90.008 Y91.614 E41.87975
G1 X88.881 Y93.175 E42.02683
G1 X87.998 Y94.881 E42.17358
G1 X87.608 Y95.975 E42.26231
G1 X77.425 Y95.975 E43.04023
G1 X77.424 Y95.975 E43.04031
G1 X77.124 Y95.975 E43.06323
G1 X77.18 Y95.68 E43.07733
G1 X77.369 Y94.685 E43.15471
G1 X78.043 Y92.369 E43.33898
G1 X78.956 Y90.128 E43.52384
G1 X80.093 Y88.002 E43.70802
G1 X81.44 Y86.009 E43.89179
G1 X82.996 Y84.159 E44.07646
G0 F2057.1 X83.069 Y84.227
G0 X102.103 Y87.109
G0 X103.996 Y87.567
G0 X105.787 Y88.297
G0 X107.461 Y89.293
G0 X108.948 Y90.499
G0 X110.251 Y91.926
G0 X111.33 Y93.53
G0 X112.159 Y95.274
G0 X112.725 Y97.125
G0 X113.008 Y99.036
G0 X113.008 Y100.964
G0 X112.725 Y102.875
G0 X112.159 Y104.726
G0 X111.33 Y106.47
G0 X110.251 Y108.074
G0 X108.968 Y109.479
G0 X107.449 Y110.719
G0 X105.791 Y111.701
G0 X103.991 Y112.434
G0 X102.119 Y112.89
G0 X100.154 Y113.061
G0 X98.267 Y112.954
G0 X96.375 Y112.56
G0 X94.562 Y111.891
G0 X77.202 Y104.088
G0 X76.822 Y103.525
;TYPE:WALL-OUTER
G1 F1200 X87.966 Y103.524 E44.9278
G1 X88.003 Y103.648 E44.93768
G1 X88.459 Y104.918 E45.04077
G1 X89.308 Y106.562 E45.18212
G1 X90.392 Y108.063 E45.32357
G1 X91.687 Y109.389 E45.46516
G1 X93.162 Y110.508 E45.6066
G1 X94.786 Y111.399 E45.74811
G1 X96.524 Y112.04 E45.88962
G1 X98.337 Y112.418 E46.0311
G1 X100.153 Y112.52 E46.17006
G1 X100.359 Y112.508 E46.18582
G1 X102.031 Y112.356 E46.31408
G1 X103.825 Y111.919 E46.45514
G1 X105.551 Y111.217 E46.59748
G1 X107.14 Y110.276 E46.73856
G1 X108.596 Y109.086 E46.88222
G1 X109.826 Y107.74 E47.02151
G1 X110.86 Y106.203 E47.16303
G1 X111.655 Y104.531 E47.30446
G1 X112.197 Y102.757 E47.44617
G1 X112.469 Y100.925 E47.58766
G1 X112.469 Y99.075 E47.72899
G1 X112.197 Y97.243 E47.87048
G1 X111.655 Y95.469 E48.01218
G1 X110.86 Y93.797 E48.15362
G1 X109.826 Y92.26 E48.29513
G1 X108.577 Y90.893 E48.43659
G1 X107.152 Y89.736 E48.57682
G1 X105.547 Y88.781 E48.71949
G1 X103.83 Y88.082 E48.86112
G1 X102.015 Y87.643 E49.00377
G1 X100.186 Y87.476 E49.14408
G1 X98.299 Y87.591 E49.2885
G1 X96.524 Y87.96 E49.427
G1 X94.786 Y88.601 E49.56852
G1 X93.162 Y89.492 E49.71003
G1 X91.687 Y90.611 E49.85146
G1 X90.392 Y91.937 E49.99306
G1 X89.308 Y93.438 E50.1345
G1 X88.458 Y95.081 E50.27582
G1 X87.961 Y96.475 E50.38888
G1 X76.821 Y96.475 E51.23991
G1 X76.82 Y96.475 E51.23999
G1 X76.52 Y96.475 E51.26291
G1 X76.576 Y96.18 E51.27702
G1 X76.883 Y94.565 E51.4026
G1 X77.57 Y92.204 E51.59045
G1 X78.503 Y89.914 E51.77936
G1 X79.662 Y87.747 E51.96709
G1 X81.044 Y85.703 E52.15559
G1 X82.627 Y83.82 E52.34351
G1 X84.406 Y82.101 E52.5325
G1 X86.342 Y80.585 E52.72035
G1 X88.439 Y79.27 E52.90944
G1 X90.639 Y78.191 E53.09663
G1 X92.965 Y77.335 E53.28598
G1 X95.348 Y76.731 E53.47378
G1 X97.782 Y76.377 E53.66168
G1 X100.258 Y76.276 E53.85099
G1 X102.701 Y76.433 E54.03801
G1 X105.145 Y76.845 E54.22735
G1 X107.513 Y77.505 E54.41515
G1 X109.814 Y78.411 E54.60407
G1 X111.993 Y79.544 E54.79169
G1 X114.058 Y80.905 E54.98063
G1 X115.959 Y82.465 E55.16849
G1 X117.698 Y84.225 E55.35751
G1 X119.235 Y86.144 E55.54533
G1 X120.568 Y88.213 E55.73336
G1 X121.679 Y90.414 E55.92171
G1 X122.559 Y92.721 E56.11034
G1 X123.191 Y95.105 E56.29875
G1 X123.574 Y97.535 E56.48668
G1 X123.702 Y100 E56.67525
G1 X123.574 Y102.465 E56.86381
G1 X123.191 Y104.895 E57.05174
G1 X122.559 Y107.279 E57.24016
G1 X121.679 Y109.586 E57.42879
G1 X120.568 Y111.787 E57.61714
G1 X119.235 Y113.856 E57.80516
G1 X117.698 Y115.775 E57.99299
G1 X115.959 Y117.535 E58.182
G1 X114.058 Y119.095 E58.36987
G1 X111.993 Y120.456 E58.5588
G1 X109.814 Y121.589 E58.74643
G1 X107.513 Y122.495 E58.93534
G1 X105.145 Y123.155 E59.12314
G1 X102.701 Y123.567 E59.31248
G1 X100.258 Y123.724 E59.4995
G1 X97.782 Y123.623 E59.68881
G1 X95.348 Y123.269 E59.87671
G1 X92.965 Y122.665 E60.06451
G1 X90.639 Y121.809 E60.25386
G1 X88.439 Y120.73 E60.44105
G1 X86.342 Y119.415 E60.63014
G1 X84.406 Y117.899 E60.81799
G1 X82.627 Y116.18 E61.00698
G1 X81.044 Y114.297 E61.19491
G1 X79.662 Y112.253 E61.3834
G1 X78.503 Y110.086 E61.57114
G1 X77.57 Y107.796 E61.76004
G1 X76.884 Y105.434 E61.94794
G1 X76.577 Y103.82 E62.07345
G1 X76.521 Y103.525 E62.09639
G1 X76.821 Y103.525 E62.11049
G1 X76.822 Y103.525 E62.11056
G0 F2057.1 X77.022 Y103.525
G0 X77.202 Y104.088
G0 X77.731 Y104.525
;TYPE:WALL-INNER
G1 F1200 X87.255 Y104.524 E62.83814
G1 X87.54 Y105.318 E62.90259
G1 X88.453 Y107.087 E63.05467
G1 X89.624 Y108.708 E63.20744
G1 X91.023 Y110.141 E63.36043
G1 X92.617 Y111.349 E63.51322
G1 X94.37 Y112.311 E63.66598
G1 X96.248 Y113.004 E63.8189
G1 X98.206 Y113.413 E63.97171
G1 X100.154 Y113.521 E64.12076
G1 X100.433 Y113.505 E64.14211
G1 X102.195 Y113.345 E64.27727
G1 X104.133 Y112.874 E64.42963
G1 X105.996 Y112.116 E64.58328
G1 X107.715 Y111.099 E64.73587
G1 X109.285 Y109.814 E64.89086
G1 X110.614 Y108.36 E65.04134
G1 X111.732 Y106.699 E65.1943
G1 X112.59 Y104.894 E65.34698
G1 X113.176 Y102.977 E65.50012
G1 X113.469 Y100.998 E65.65295
